X:97
T:John, Come Tell Us As We Haul Away
M:2/4
L:1/16
Q:1/4=100
K:F
C2C2|\
F2F2 G2G2|A2F2 c4|F3G AAAA|G2c2 F3C|
F2F2 G2G2|A2F2 c4|F3G AAAA|G2c2 F4 |
d4 (c2f2)|d4   c4|F3G AAAA|G2c2 F4||
